X: 37
T: JIG: Donncha Lynch's
T: Donncha Ó Loinsigh's
C: C: Trad.; S: ThZCh; Méabh & Clíodhna Begley
C: Set Leaders: Oliushka, Anton
Z: Anton Zille ed.; Bregolas at The Session
N: https://thesession.org/members/26966/sets/71901
R: Jig
M: 6/8
L: 1/8
Q: 3/8=116
K: Amaj
|:EAA cAA|BAB cAF|EAA cAA|B/c/dc BAF|
EAA cAA|BAB cAA|Bcd e2d|cAA A2F:||
|:E3 ECE|FAA FAA|Bcd e2d|cAA BAF|
~E3 ECE|FAA FAA|Bcd e2d|cAA A2F:||

